;FLAVOR:Marlin
;TIME:1854
;Filament used: 1.3484m
;Layer height: 0.2
;MINX:129
;MINY:129
;MINZ:0.2
;MAXX:171
;MAXY:171
;MAXZ:20
;Generated with Cura_SteamEngine 4.11.0
M140 S50
M105
M190 S50
M104 S200
M105
M109 S200
M82 ;absolute extrusion mode
M201 X500.00 Y500.00 Z100.00 E5000.00 ;Setup machine max acceleration
M203 X500.00 Y500.00 Z10.00 E50.00 ;Setup machine max feedrate
M204 P500.00 R1000.00 T500.00 ;Setup Print/Retract/Travel acceleration
M205 X8.00 Y8.00 Z0.40 E5.00 ;Setup Jerk
M220 S100 ;Reset Feedrate
M221 S100 ;Reset Flowrate

G28 ;Home

G92 E0 ;Reset Extruder
G1 Z2.0 F3000 ;Move Z Axis up
G1 X10.1 Y20 Z0.28 F5000.0 ;Move to start position
G1 X10.1 Y200.0 Z0.28 F1500.0 E15 ;Draw the first line
G1 X10.4 Y200.0 Z0.28 F5000.0 ;Move to side a little
G1 X10.4 Y20 Z0.28 F1500.0 E30 ;Draw the second line
G92 E0 ;Reset Extruder
G1 Z2.0 F3000 ;Move Z Axis up

G92 E0
G92 E0
G1 F2700 E-5
;LAYER_COUNT:100
;LAYER:0
M107
G0 F6000 X132.198 Y132.264 Z0.2
;TYPE:SKIRT
G1 F2700 E0
G1 F1200 X132.886 Y131.627 E0.03119
G1 X133.626 Y131.051 E0.06237
G1 X134.412 Y130.539 E0.09357
G1 X135.239 Y130.097 E0.12476
G1 X136.101 Y129.727 E0.15596
G1 X136.991 Y129.431 E0.18716
G1 X137.903 Y129.213 E0.21835
G1 X138.83 Y129.072 E0.24953
G1 X139.701 Y129.013 E0.27857
G1 X140.022 Y129.004 E0.28925
G1 X140.33 Y129 E0.29949
G1 X159.293 Y129 E0.93021
G1 X160.149 Y129.011 E0.95868
G1 X161.085 Y129.065 E0.98986
G1 X162.013 Y129.197 E1.02104
G1 X162.927 Y129.409 E1.05225
G1 X163.819 Y129.698 E1.08343
G1 X164.684 Y130.061 E1.11463
G1 X165.514 Y130.497 E1.14582
G1 X166.305 Y131.002 E1.17703
G1 X167.049 Y131.573 E1.20822
G1 X167.742 Y132.205 E1.23942
G1 X168.379 Y132.893 E1.2706
G1 X168.954 Y133.634 E1.3018
G1 X169.465 Y134.42 E1.33298
G1 X169.907 Y135.248 E1.3642
G1 X170.276 Y136.11 E1.39538
G1 X170.571 Y137 E1.42657
G1 X170.789 Y137.912 E1.45776
G1 X170.929 Y138.84 E1.48897
G1 X170.987 Y139.701 E1.51767
G1 X170.996 Y140.021 E1.52832
G1 X171 Y140.33 E1.5386
G1 X170.999 Y159.4 E2.17287
G1 X170.99 Y160.127 E2.19705
G1 X170.939 Y161.064 E2.22826
G1 X170.807 Y161.992 E2.25944
G1 X170.598 Y162.906 E2.29062
G1 X170.311 Y163.799 E2.32182
G1 X169.949 Y164.665 E2.35304
G1 X169.515 Y165.496 E2.38422
G1 X169.011 Y166.287 E2.41542
G1 X168.442 Y167.032 E2.4466
G1 X167.811 Y167.727 E2.47782
G1 X167.124 Y168.365 E2.509
G1 X166.385 Y168.942 E2.54018
G1 X165.599 Y169.454 E2.57138
G1 X164.773 Y169.897 E2.60256
G1 X163.911 Y170.269 E2.63378
G1 X163.022 Y170.565 E2.66495
G1 X162.11 Y170.785 E2.69615
G1 X161.183 Y170.926 E2.72734
G1 X160.299 Y170.987 E2.75681
G1 X159.978 Y170.996 E2.76749
G1 X159.67 Y171 E2.77774
G1 X140.565 Y170.999 E3.41317
G1 X139.867 Y170.99 E3.43639
G1 X138.931 Y170.938 E3.46757
G1 X138.002 Y170.806 E3.49878
G1 X137.088 Y170.596 E3.52997
G1 X136.195 Y170.309 E3.56117
G1 X135.33 Y169.946 E3.59237
G1 X134.499 Y169.512 E3.62355
G1 X133.708 Y169.008 E3.65474
G1 X132.963 Y168.438 E3.68594
G1 X132.269 Y167.807 E3.71714
G1 X131.632 Y167.12 E3.7483
G1 X131.055 Y166.38 E3.77951
G1 X130.543 Y165.594 E3.81071
G1 X130.1 Y164.767 E3.84192
G1 X129.729 Y163.906 E3.8731
G1 X129.433 Y163.016 E3.90429
G1 X129.214 Y162.104 E3.93549
G1 X129.073 Y161.177 E3.96668
G1 X129.013 Y160.288 E3.99631
G1 X129.004 Y159.955 E4.00739
G1 X129 Y159.658 E4.01727
G1 X129.001 Y140.525 E4.65364
G1 X129.01 Y139.86 E4.67576
G1 X129.063 Y138.924 E4.70694
G1 X129.195 Y137.995 E4.73815
G1 X129.406 Y137.081 E4.76935
G1 X129.694 Y136.189 E4.80052
G1 X130.057 Y135.324 E4.83172
G1 X130.492 Y134.493 E4.86292
G1 X130.996 Y133.703 E4.89409
G1 X131.566 Y132.958 E4.92529
G1 X132.198 Y132.264 E4.95651
G0 F6000 X132.589 Y132.439
G1 F1200 X133.274 Y131.823 E4.98715
G1 X134.01 Y131.27 E5.01777
G1 X134.791 Y130.782 E5.0484
G1 X135.611 Y130.364 E5.07901
G1 X136.465 Y130.019 E5.10964
G1 X137.345 Y129.749 E5.14026
G1 X138.245 Y129.557 E5.17087
G1 X139.159 Y129.443 E5.2015
G1 X139.712 Y129.413 E5.21992
G1 X140.033 Y129.404 E5.2306
G1 X140.33 Y129.4 E5.24048
G1 X159.293 Y129.4 E5.87119
G1 X160.143 Y129.411 E5.89947
G1 X161.062 Y129.464 E5.93008
G1 X161.973 Y129.597 E5.9607
G1 X162.869 Y129.808 E5.99132
G1 X163.743 Y130.096 E6.02193
G1 X164.59 Y130.459 E6.05258
G1 X165.401 Y130.894 E6.08319
G1 X166.171 Y131.398 E6.1138
G1 X166.895 Y131.967 E6.14442
G1 X167.567 Y132.597 E6.17506
G1 X168.182 Y133.282 E6.20568
G1 X168.735 Y134.018 E6.2363
G1 X169.222 Y134.799 E6.26691
G1 X169.639 Y135.62 E6.29754
G1 X169.984 Y136.474 E6.32817
G1 X170.253 Y137.354 E6.35878
G1 X170.445 Y138.255 E6.38942
G1 X170.558 Y139.168 E6.42001
G1 X170.587 Y139.712 E6.43813
G1 X170.596 Y140.032 E6.44878
G1 X170.6 Y140.33 E6.45869
G1 X170.599 Y159.395 E7.0928
G1 X170.59 Y160.122 E7.11698
G1 X170.539 Y161.041 E7.14759
G1 X170.408 Y161.953 E7.17824
G1 X170.198 Y162.849 E7.20885
G1 X169.912 Y163.724 E7.23946
G1 X169.551 Y164.571 E7.27009
G1 X169.117 Y165.383 E7.30071
G1 X168.615 Y166.155 E7.33134
G1 X168.047 Y166.88 E7.36197
G1 X167.419 Y167.553 E7.39259
G1 X166.735 Y168.169 E7.4232
G1 X166 Y168.723 E7.45382
G1 X165.22 Y169.212 E7.48444
G1 X164.4 Y169.631 E7.51506
G1 X163.547 Y169.977 E7.54568
G1 X162.667 Y170.248 E7.5763
G1 X161.767 Y170.441 E7.60692
G1 X160.853 Y170.556 E7.63756
G1 X160.288 Y170.587 E7.65638
G1 X159.967 Y170.596 E7.66706
G1 X159.67 Y170.6 E7.67694
G1 X140.57 Y170.599 E8.31221
G1 X139.872 Y170.59 E8.33542
G1 X138.953 Y170.538 E8.36604
G1 X138.042 Y170.407 E8.39665
G1 X137.146 Y170.197 E8.42726
G1 X136.271 Y169.91 E8.45789
G1 X135.424 Y169.548 E8.48852
G1 X134.612 Y169.114 E8.51915
G1 X133.841 Y168.612 E8.54975
G1 X133.116 Y168.044 E8.58038
G1 X132.443 Y167.415 E8.61102
G1 X131.828 Y166.731 E8.64161
G1 X131.274 Y165.996 E8.67222
G1 X130.786 Y165.215 E8.70285
G1 X130.367 Y164.395 E8.73348
G1 X130.021 Y163.542 E8.7641
G1 X129.751 Y162.662 E8.79471
G1 X129.558 Y161.761 E8.82536
G1 X129.444 Y160.848 E8.85596
G1 X129.413 Y160.277 E8.87498
G1 X129.404 Y159.944 E8.88606
G1 X129.4 Y159.658 E8.89558
G1 X129.401 Y140.531 E9.53174
G1 X129.41 Y139.866 E9.55386
G1 X129.462 Y138.946 E9.58451
G1 X129.594 Y138.035 E9.61513
G1 X129.805 Y137.139 E9.64574
G1 X130.092 Y136.264 E9.67637
G1 X130.455 Y135.418 E9.70699
G1 X130.889 Y134.606 E9.73761
G1 X131.392 Y133.835 E9.76823
G1 X131.961 Y133.111 E9.79886
G1 X132.589 Y132.439 E9.82945
G0 F6000 X132.981 Y132.617
G1 F1200 X133.662 Y132.024 E9.85948
G1 X134.394 Y131.494 E9.88954
G1 X135.169 Y131.031 E9.91957
G1 X135.982 Y130.638 E9.9496
G1 X136.827 Y130.318 E9.97966
G1 X137.696 Y130.075 E10.00967
G1 X138.584 Y129.909 E10.03971
G1 X139.723 Y129.813 E10.07773
G1 X140.044 Y129.804 E10.08841
G1 X140.33 Y129.8 E10.09793
G1 X159.293 Y129.8 E10.72864
G1 X160.137 Y129.811 E10.75671
G1 X161.039 Y129.864 E10.78676
G1 X161.932 Y129.996 E10.81679
G1 X162.81 Y130.207 E10.84682
G1 X163.666 Y130.495 E10.87686
G1 X164.493 Y130.857 E10.90689
G1 X165.285 Y131.292 E10.93694
G1 X166.036 Y131.794 E10.96698
G1 X166.739 Y132.361 E10.99702
G1 X167.389 Y132.988 E11.02706
G1 X167.981 Y133.67 E11.0571
G1 X168.511 Y134.401 E11.08713
G1 X168.973 Y135.177 E11.11717
G1 X169.366 Y135.99 E11.1472
G1 X169.684 Y136.835 E11.17723
G1 X169.927 Y137.705 E11.20728
G1 X170.092 Y138.593 E11.23732
G1 X170.187 Y139.723 E11.27503
G1 X170.196 Y140.043 E11.28568
G1 X170.2 Y140.33 E11.29523
G1 X170.199 Y159.39 E11.92916
G1 X170.19 Y160.117 E11.95335
G1 X170.139 Y161.019 E11.9834
G1 X170.008 Y161.913 E12.01345
G1 X169.799 Y162.791 E12.04347
G1 X169.513 Y163.648 E12.07351
G1 X169.152 Y164.476 E12.10356
G1 X168.72 Y165.268 E12.13356
G1 X168.219 Y166.02 E12.16362
G1 X167.653 Y166.724 E12.19366
G1 X167.028 Y167.375 E12.22368
G1 X166.347 Y167.969 E12.25373
G1 X165.616 Y168.5 E12.28378
G1 X164.842 Y168.964 E12.3138
G1 X164.029 Y169.358 E12.34385
G1 X163.185 Y169.678 E12.37387
G1 X162.315 Y169.923 E12.40393
G1 X161.428 Y170.089 E12.43394
G1 X160.277 Y170.187 E12.47237
G1 X159.956 Y170.196 E12.48305
G1 X159.67 Y170.2 E12.49256
G1 X140.575 Y170.199 E13.12766
G1 X139.877 Y170.19 E13.15088
G1 X138.976 Y170.139 E13.1809
G1 X138.082 Y170.007 E13.21095
G1 X137.204 Y169.798 E13.24097
G1 X136.347 Y169.511 E13.27103
G1 X135.52 Y169.15 E13.30104
G1 X134.727 Y168.717 E13.33109
G1 X133.976 Y168.216 E13.36112
G1 X133.272 Y167.65 E13.39116
G1 X132.621 Y167.024 E13.4212
G1 X132.028 Y166.343 E13.45124
G1 X131.498 Y165.612 E13.48127
G1 X131.034 Y164.837 E13.51131
G1 X130.64 Y164.024 E13.54136
G1 X130.32 Y163.18 E13.57138
G1 X130.076 Y162.31 E13.60143
G1 X129.91 Y161.422 E13.63148
G1 X129.813 Y160.267 E13.67003
G1 X129.804 Y159.934 E13.68111
G1 X129.8 Y159.658 E13.69029
G1 X129.801 Y140.536 E14.32629
G1 X129.81 Y139.871 E14.34841
G1 X129.862 Y138.969 E14.37846
G1 X129.994 Y138.076 E14.40849
G1 X130.204 Y137.198 E14.43851
G1 X130.491 Y136.341 E14.46857
G1 X130.853 Y135.514 E14.4986
G1 X131.286 Y134.722 E14.52862
G1 X131.788 Y133.971 E14.55867
G1 X132.355 Y133.267 E14.58873
G1 X132.981 Y132.617 E14.61875
G1 F2700 E9.61875
;MESH:xyzCalibration_cube.stl
G0 F6000 X140.414 Y139.335
G0 X140.414 Y140.414
G0 X159.218 Y140.782
G0 X159.4 Y159.4
;TYPE:WALL-INNER
G1 F2700 E14.61875
G1 F1200 X140.6 Y159.4 E15.24404
G1 X140.6 Y140.6 E15.86933
G1 X159.4 Y140.6 E16.49462
G1 X159.4 Y159.4 E17.11991
G0 F6000 X159.8 Y159.8
;TYPE:WALL-OUTER
G1 F1200 X140.2 Y159.8 E17.77181
G1 X140.2 Y140.2 E18.42371
G1 X159.8 Y140.2 E19.0756
G1 X159.8 Y159.8 E19.7275
G0 F6000 X159.53 Y159.53
G0 X159.29 Y159.01
G0 X159.01 Y159.01
;TYPE:SKIN
G1 F1200 X140.99 Y159.01 E20.32685
G1 X140.99 Y140.99 E20.9262
G1 X159.01 Y140.99 E21.52555
G1 X159.01 Y159.01 E22.12489
G0 F6000 X159.29 Y159.01
G0 X159.29 Y141.313
G0 X158.849 Y141.313
G1 F1200 X158.686 Y141.15 E22.13256
G0 F6000 X158.121 Y141.15
G1 F1200 X158.849 Y141.878 E22.1668
G0 F6000 X158.849 Y142.444
G1 F1200 X157.555 Y141.15 E22.22767
G0 F6000 X156.989 Y141.15
G1 F1200 X158.849 Y143.01 E22.31516
G0 F6000 X158.849 Y143.575
G1 F1200 X156.424 Y141.15 E22.42922
G0 F6000 X155.858 Y141.15
G1 F1200 X158.849 Y144.141 E22.56991
G0 F6000 X158.849 Y144.707
G1 F1200 X155.292 Y141.15 E22.73722
G0 F6000 X154.726 Y141.15
G1 F1200 X158.849 Y145.272 E22.93113
G0 F6000 X158.849 Y145.838
G1 F1200 X154.161 Y141.15 E23.15164
G0 F6000 X153.595 Y141.15
G1 F1200 X158.849 Y146.404 E23.39877
G0 F6000 X158.849 Y146.97
G1 F1200 X153.029 Y141.15 E23.67253
G0 F6000 X152.464 Y141.15
G1 F1200 X158.849 Y147.535 E23.97286
G0 F6000 X158.849 Y148.101
G1 F1200 X151.898 Y141.15 E24.29981
G0 F6000 X151.332 Y141.15
G1 F1200 X158.849 Y148.667 E24.65339
G0 F6000 X158.849 Y149.232
G1 F1200 X150.767 Y141.15 E25.03354
G0 F6000 X150.201 Y141.15
G1 F1200 X158.849 Y149.798 E25.44031
G0 F6000 X158.849 Y150.364
G1 F1200 X149.635 Y141.15 E25.87371
G0 F6000 X149.07 Y141.15
G1 F1200 X158.849 Y150.929 E26.33369
G0 F6000 X158.849 Y151.495
G1 F1200 X148.504 Y141.15 E26.82028
G0 F6000 X147.938 Y141.15
G1 F1200 X158.849 Y152.061 E27.3335
G0 F6000 X158.849 Y152.626
G1 F1200 X147.373 Y141.15 E27.8733
G0 F6000 X146.807 Y141.15
G1 F1200 X158.849 Y153.192 E28.43972
G0 F6000 X158.849 Y153.758
G1 F1200 X146.241 Y141.15 E29.03276
G0 F6000 X145.676 Y141.15
G1 F1200 X158.849 Y154.323 E29.65238
G0 F6000 X158.849 Y154.889
G1 F1200 X145.11 Y141.15 E30.29862
G0 F6000 X144.544 Y141.15
G1 F1200 X158.849 Y155.455 E30.97148
G0 F6000 X158.849 Y156.02
G1 F1200 X143.978 Y141.15 E31.67094
G0 F6000 X143.413 Y141.15
G1 F1200 X158.849 Y156.586 E32.39701
G0 F6000 X158.849 Y157.152
G1 F1200 X142.847 Y141.15 E33.14969
G0 F6000 X142.281 Y141.15
G1 F1200 X158.849 Y157.718 E33.929
G0 F6000 X158.849 Y158.283
G1 F1200 X141.716 Y141.15 E34.73488
G0 F6000 X141.149 Y141.149
G1 F1200 X158.849 Y158.849 E35.56744
G0 F6000 X158.283 Y158.849
G1 F1200 X141.149 Y141.715 E36.37337
G0 F6000 X141.149 Y142.281
G1 F1200 X157.718 Y158.849 E37.1527
G0 F6000 X157.152 Y158.849
G1 F1200 X141.149 Y142.846 E37.90543
G0 F6000 X141.149 Y143.412
G1 F1200 X156.586 Y158.849 E38.63154
G0 F6000 X156.02 Y158.849
G1 F1200 X141.149 Y143.978 E39.33103
G0 F6000 X141.149 Y144.543
G1 F1200 X155.455 Y158.849 E40.00394
G0 F6000 X154.889 Y158.849
G1 F1200 X141.149 Y145.109 E40.65022
G0 F6000 X141.149 Y145.675
G1 F1200 X154.323 Y158.849 E41.26989
G0 F6000 X153.758 Y158.849
G1 F1200 X141.149 Y146.24 E41.86298
G0 F6000 X141.149 Y146.806
G1 F1200 X153.192 Y158.849 E42.42944
G0 F6000 X152.626 Y158.849
G1 F1200 X141.149 Y147.372 E42.96929
G0 F6000 X141.149 Y147.938
G1 F1200 X152.061 Y158.849 E43.48253
G0 F6000 X151.495 Y158.849
G1 F1200 X141.149 Y148.503 E43.96917
G0 F6000 X141.149 Y149.069
G1 F1200 X150.929 Y158.849 E44.4292
G0 F6000 X150.364 Y158.849
G1 F1200 X141.149 Y149.635 E44.86262
G0 F6000 X141.149 Y150.2
G1 F1200 X149.798 Y158.849 E45.26944
G0 F6000 X149.232 Y158.849
G1 F1200 X141.149 Y150.766 E45.64964
G0 F6000 X141.149 Y151.332
G1 F1200 X148.667 Y158.849 E46.00324
G0 F6000 X148.101 Y158.849
G1 F1200 X141.149 Y151.897 E46.33024
G0 F6000 X141.149 Y152.463
G1 F1200 X147.535 Y158.849 E46.63062
G0 F6000 X146.97 Y158.849
G1 F1200 X141.149 Y153.029 E46.9044
G0 F6000 X141.149 Y153.594
G1 F1200 X146.404 Y158.849 E47.15158
G0 F6000 X145.838 Y158.849
G1 F1200 X141.149 Y154.16 E47.37213
G0 F6000 X141.149 Y154.726
G1 F1200 X145.272 Y158.849 E47.56607
G0 F6000 X144.707 Y158.849
G1 F1200 X141.149 Y155.291 E47.73342
G0 F6000 X141.149 Y155.857
G1 F1200 X144.141 Y158.849 E47.87416
G0 F6000 X143.575 Y158.849
G1 F1200 X141.149 Y156.423 E47.98827
G0 F6000 X141.149 Y156.989
G1 F1200 X143.01 Y158.849 E48.07578
G0 F6000 X142.444 Y158.849
G1 F1200 X141.149 Y157.554 E48.13669
G0 F6000 X141.149 Y158.12
G1 F1200 X141.878 Y158.849 E48.17098
G0 F6000 X141.313 Y158.849
G1 F1200 X141.149 Y158.686 E48.17867
G0 F6000 X140.8 Y158.686
;MESH:NONMESH
G0 F300 X140.8 Y158.686 Z0.4
G0 F6000 X140.71 Y158.686
G0 X140.782 Y159.218
G0 X159.4 Y159.4
;TIME_ELAPSED:84.071638
;LAYER:1
M106 S85
;TYPE:WALL-INNER
;MESH:xyzCalibration_cube.stl
G1 F1350 X140.6 Y159.4 E48.80396
G1 X140.6 Y140.6 E49.42926
G1 X159.4 Y140.6 E50.05455
G1 X159.4 Y159.4 E50.67984
G0 F7500 X159.8 Y159.8
;TYPE:WALL-OUTER
G1 F1350 X140.2 Y159.8 E51.33173
G1 X140.2 Y140.2 E51.98363
G1 X159.8 Y140.2 E52.63553
G1 X159.8 Y159.8 E53.28743
G0 F7500 X159.53 Y159.53
G0 X159.29 Y159.01
G0 X159.01 Y159.01
;TYPE:SKIN
G1 F1350 X140.99 Y159.01 E53.88678
G1 X140.99 Y140.99 E54.48613
G1 X159.01 Y140.99 E55.08547
G1 X159.01 Y159.01 E55.68482
G0 F7500 X158.5 Y158.849
G1 F1350 X158.849 Y158.5 E55.70124
G0 F7500 X158.849 Y157.934
G1 F1350 X157.934 Y158.849 E55.74428
G0 F7500 X157.368 Y158.849
G1 F1350 X158.849 Y157.368 E55.81394
G0 F7500 X158.849 Y156.803
G1 F1350 X156.803 Y158.849 E55.91018
G0 F7500 X156.237 Y158.849
G1 F1350 X158.849 Y156.237 E56.03304
G0 F7500 X158.849 Y155.671
G1 F1350 X155.671 Y158.849 E56.18252
G0 F7500 X155.105 Y158.849
G1 F1350 X158.849 Y155.105 E56.35863
G0 F7500 X158.849 Y154.54
G1 F1350 X154.54 Y158.849 E56.56131
G0 F7500 X153.974 Y158.849
G1 F1350 X158.849 Y153.974 E56.79061
G0 F7500 X158.849 Y153.408
G1 F1350 X153.408 Y158.849 E57.04654
G0 F7500 X152.843 Y158.849
G1 F1350 X158.849 Y152.843 E57.32904
G0 F7500 X158.849 Y152.277
G1 F1350 X152.277 Y158.849 E57.63817
G0 F7500 X151.711 Y158.849
G1 F1350 X158.849 Y151.711 E57.97392
G0 F7500 X158.849 Y151.146
G1 F1350 X151.146 Y158.849 E58.33625
G0 F7500 X150.58 Y158.849
G1 F1350 X158.849 Y150.58 E58.72519
G0 F7500 X158.849 Y150.014
G1 F1350 X150.014 Y158.849 E59.14077
G0 F7500 X149.449 Y158.849
G1 F1350 X158.849 Y149.449 E59.58291
G0 F7500 X158.849 Y148.883
G1 F1350 X148.883 Y158.849 E60.05168
G0 F7500 X148.317 Y158.849
G1 F1350 X158.849 Y148.317 E60.54708
G0 F7500 X158.849 Y147.752
G1 F1350 X147.752 Y158.849 E61.06905
G0 F7500 X147.186 Y158.849
G1 F1350 X158.849 Y147.186 E61.61764
G0 F7500 X158.849 Y146.62
G1 F1350 X146.62 Y158.849 E62.19285
G0 F7500 X146.055 Y158.849
G1 F1350 X158.849 Y146.055 E62.79464
G0 F7500 X158.849 Y145.489
G1 F1350 X145.489 Y158.849 E63.42306
G0 F7500 X144.923 Y158.849
G1 F1350 X158.849 Y144.923 E64.07809
G0 F7500 X158.849 Y144.357
G1 F1350 X144.357 Y158.849 E64.75975
G0 F7500 X143.792 Y158.849
G1 F1350 X158.849 Y143.792 E65.46799
G0 F7500 X158.849 Y143.226
G1 F1350 X143.226 Y158.849 E66.20284
G0 F7500 X142.66 Y158.849
G1 F1350 X158.849 Y142.66 E66.96433
